X:2
T:Sch\"atzeli-Walzer F 5+ chords
M:3/4
L:1/4
K:F%%MIDI gchordon
c | "F"A>G "_ ="A | "C7"B>AB | "F"caf | c3 | "C7"c"_e"e"_d"d | "_b"B3 | Bdc | "F"A3 | A>G"_ ="A | 
"C7"B>AB | "F"caf | c3 | "C7"e>dc | b>ag | "F"f>ff | fzz |: "F"d2c | d2c | A2"_ ="f | 
"C7""_e"e2"_g"g | czc | "_d"d2c | "_b"B2"_ e ="e | "F"fac' | f2c | d2c | A2"_ ="f | "C7"e2g | czc | 
e>dc | b>ag | "F"f>ff | fzz :: "F"fz"_ ="a | "Gm""_g"gzf | "C7""_e"ezd | "F"c3 | f>ef | "Gm"g3 | 
"C7"c>=Bc | "F"a3 | fz"_ ="a | "Gm""_[Bb]"gzf | "C7"ezd | "F"c3 | fzf | "Gm""_g"g3 | "C7""_e"ed"_ ="e | "F"f>ff | fzz :| 

